X: 7406
T:Marchioness of Tweeddale's delight
T:Cam ye oer frae France 
R:Triple Hornpipe
O:Scotland
M:3/2
K:Am
c2A4 E2 A4 | c2A4c2 BcdB | \
c2A4 E2 A3c| B2G2 G2d2 BcdB:|
A2a4 a2 ^g2a2 | e2a2a3b c'2a2|\
e2a2 bag^f g4| B2G2G2d2 BcdB:|
